images/3234957.svg

<?xml version="1.0" encoding="UTF-8"?>
<svg xmlns="http://www.w3.org/2000/svg" xmlns:xlink="http://www.w3.org/1999/xlink" width="300pt" height="300pt" viewBox="0 0 300 300" version="1.1">
<defs>
<g>
<symbol overflow="visible" id="glyph0-0">
<path style="stroke:none;" d="M 0.453125 1.59375 L 0.453125 -6.34375 L 4.953125 -6.34375 L 4.953125 1.59375 Z M 0.953125 1.09375 L 4.453125 1.09375 L 4.453125 -5.84375 L 0.953125 -5.84375 Z M 0.953125 1.09375 "/>
</symbol>
<symbol overflow="visible" id="glyph0-1">
<path style="stroke:none;" d="M 0.890625 -6.5625 L 2.078125 -6.5625 L 4.984375 -1.078125 L 4.984375 -6.5625 L 5.84375 -6.5625 L 5.84375 0 L 4.65625 0 L 1.75 -5.484375 L 1.75 0 L 0.890625 0 Z M 0.890625 -6.5625 "/>
</symbol>
<symbol overflow="visible" id="glyph0-2">
<path style="stroke:none;" d="M 0.890625 -6.5625 L 1.765625 -6.5625 L 1.765625 -3.875 L 5 -3.875 L 5 -6.5625 L 5.890625 -6.5625 L 5.890625 0 L 5 0 L 5 -3.125 L 1.765625 -3.125 L 1.765625 0 L 0.890625 0 Z M 0.890625 -6.5625 "/>
</symbol>
</g>
</defs>
<g id="surface47373">
<rect x="0" y="0" width="300" height="300" style="fill:rgb(100%,100%,100%);fill-opacity:1;stroke:none;"/>
<path style="fill:none;stroke-width:1.2;stroke-linecap:butt;stroke-linejoin:miter;stroke:rgb(0%,0%,0%);stroke-opacity:1;stroke-miterlimit:10;" d="M 250.777344 212.992188 L 246.566406 189.5625 "/>
<path style="fill:none;stroke-width:1.2;stroke-linecap:butt;stroke-linejoin:miter;stroke:rgb(0%,0%,0%);stroke-opacity:1;stroke-miterlimit:10;" d="M 246.566406 189.5625 L 224.171875 181.496094 "/>
<path style="fill:none;stroke-width:1.2;stroke-linecap:butt;stroke-linejoin:miter;stroke:rgb(0%,0%,0%);stroke-opacity:1;stroke-miterlimit:10;" d="M 246.226562 183.488281 L 228.308594 177.03125 "/>
<path style="fill:none;stroke-width:1.2;stroke-linecap:butt;stroke-linejoin:miter;stroke:rgb(0%,0%,0%);stroke-opacity:1;stroke-miterlimit:10;" d="M 264.75 174.203125 L 246.566406 189.5625 "/>
<path style="fill:none;stroke-width:1.2;stroke-linecap:butt;stroke-linejoin:miter;stroke:rgb(0%,0%,0%);stroke-opacity:1;stroke-miterlimit:10;" d="M 224.171875 181.496094 L 219.960938 158.066406 "/>
<path style="fill:none;stroke-width:1.2;stroke-linecap:butt;stroke-linejoin:miter;stroke:rgb(0%,0%,0%);stroke-opacity:1;stroke-miterlimit:10;" d="M 219.960938 158.066406 L 238.144531 142.707031 "/>
<path style="fill:none;stroke-width:1.2;stroke-linecap:butt;stroke-linejoin:miter;stroke:rgb(0%,0%,0%);stroke-opacity:1;stroke-miterlimit:10;" d="M 225.394531 160.808594 L 239.941406 148.519531 "/>
<path style="fill:none;stroke-width:1.2;stroke-linecap:butt;stroke-linejoin:miter;stroke:rgb(0%,0%,0%);stroke-opacity:1;stroke-miterlimit:10;" d="M 219.960938 158.066406 L 197.566406 150 "/>
<path style="fill:none;stroke-width:1.2;stroke-linecap:butt;stroke-linejoin:miter;stroke:rgb(0%,0%,0%);stroke-opacity:1;stroke-miterlimit:10;" d="M 238.144531 142.707031 L 260.539062 150.773438 "/>
<path style="fill:none;stroke-width:1.2;stroke-linecap:butt;stroke-linejoin:miter;stroke:rgb(0%,0%,0%);stroke-opacity:1;stroke-miterlimit:10;" d="M 260.539062 150.773438 L 264.75 174.203125 "/>
<path style="fill:none;stroke-width:1.2;stroke-linecap:butt;stroke-linejoin:miter;stroke:rgb(0%,0%,0%);stroke-opacity:1;stroke-miterlimit:10;" d="M 255.449219 154.105469 L 258.816406 172.847656 "/>
<path style="fill:none;stroke-width:1.2;stroke-linecap:butt;stroke-linejoin:miter;stroke:rgb(0%,0%,0%);stroke-opacity:1;stroke-miterlimit:10;" d="M 197.566406 150 L 195.460938 138.285156 "/>
<path style="fill:none;stroke-width:1.2;stroke-linecap:butt;stroke-linejoin:miter;stroke:rgb(0%,0%,100%);stroke-opacity:1;stroke-miterlimit:10;" d="M 195.460938 138.285156 L 193.355469 126.570312 "/>
<path style="fill:none;stroke-width:1.2;stroke-linecap:butt;stroke-linejoin:miter;stroke:rgb(0%,0%,100%);stroke-opacity:1;stroke-miterlimit:10;" d="M 193.355469 126.570312 L 182.15625 122.539062 "/>
<path style="fill:none;stroke-width:1.2;stroke-linecap:butt;stroke-linejoin:miter;stroke:rgb(0%,0%,0%);stroke-opacity:1;stroke-miterlimit:10;" d="M 182.15625 122.539062 L 170.960938 118.503906 "/>
<path style=" stroke:none;fill-rule:nonzero;fill:rgb(100%,100%,100%);fill-opacity:1;" d="M 186.355469 121.070312 L 200.355469 121.070312 L 200.355469 132.070312 L 186.355469 132.070312 Z M 186.355469 121.070312 "/>
<g style="fill:rgb(0%,0%,100%);fill-opacity:1;">
  <use xlink:href="#glyph0-1" x="186.355469" y="129.733398"/>
  <use xlink:href="#glyph0-2" x="193.333008" y="129.733398"/>
</g>
<path style="fill:none;stroke-width:1.2;stroke-linecap:butt;stroke-linejoin:miter;stroke:rgb(0%,0%,0%);stroke-opacity:1;stroke-miterlimit:10;" d="M 170.960938 118.503906 L 168.855469 106.789062 "/>
<path style="fill:none;stroke-width:1.2;stroke-linecap:butt;stroke-linejoin:miter;stroke:rgb(0%,0%,100%);stroke-opacity:1;stroke-miterlimit:10;" d="M 168.855469 106.789062 L 166.746094 95.078125 "/>
<path style="fill:none;stroke-width:1.2;stroke-linecap:butt;stroke-linejoin:miter;stroke:rgb(0%,0%,0%);stroke-opacity:1;stroke-miterlimit:10;" d="M 165.027344 117.152344 L 163.339844 107.78125 "/>
<path style="fill:none;stroke-width:1.2;stroke-linecap:butt;stroke-linejoin:miter;stroke:rgb(0%,0%,100%);stroke-opacity:1;stroke-miterlimit:10;" d="M 163.339844 107.78125 L 161.65625 98.410156 "/>
<path style="fill:none;stroke-width:1.2;stroke-linecap:butt;stroke-linejoin:miter;stroke:rgb(0%,0%,0%);stroke-opacity:1;stroke-miterlimit:10;" d="M 152.773438 133.867188 L 170.960938 118.503906 "/>
<path style="fill:none;stroke-width:1.2;stroke-linecap:butt;stroke-linejoin:miter;stroke:rgb(0%,0%,100%);stroke-opacity:1;stroke-miterlimit:10;" d="M 166.746094 95.078125 L 155.550781 91.042969 "/>
<path style="fill:none;stroke-width:1.2;stroke-linecap:butt;stroke-linejoin:miter;stroke:rgb(0%,0%,0%);stroke-opacity:1;stroke-miterlimit:10;" d="M 155.550781 91.042969 L 144.351562 87.007812 "/>
<path style=" stroke:none;fill-rule:nonzero;fill:rgb(100%,100%,100%);fill-opacity:1;" d="M 163.746094 89.578125 L 170.746094 89.578125 L 170.746094 100.578125 L 163.746094 100.578125 Z M 163.746094 89.578125 "/>
<g style="fill:rgb(0%,0%,100%);fill-opacity:1;">
  <use xlink:href="#glyph0-1" x="163.746094" y="98.241211"/>
</g>
<path style="fill:none;stroke-width:1.2;stroke-linecap:butt;stroke-linejoin:miter;stroke:rgb(0%,0%,0%);stroke-opacity:1;stroke-miterlimit:10;" d="M 144.351562 87.007812 L 135.261719 94.691406 "/>
<path style="fill:none;stroke-width:1.2;stroke-linecap:butt;stroke-linejoin:miter;stroke:rgb(0%,0%,100%);stroke-opacity:1;stroke-miterlimit:10;" d="M 135.261719 94.691406 L 126.167969 102.371094 "/>
<path style="fill:none;stroke-width:1.2;stroke-linecap:butt;stroke-linejoin:miter;stroke:rgb(0%,0%,0%);stroke-opacity:1;stroke-miterlimit:10;" d="M 146.148438 92.824219 L 138.875 98.96875 "/>
<path style="fill:none;stroke-width:1.2;stroke-linecap:butt;stroke-linejoin:miter;stroke:rgb(0%,0%,100%);stroke-opacity:1;stroke-miterlimit:10;" d="M 138.875 98.96875 L 131.601562 105.113281 "/>
<path style="fill:none;stroke-width:1.2;stroke-linecap:butt;stroke-linejoin:miter;stroke:rgb(0%,0%,100%);stroke-opacity:1;stroke-miterlimit:10;" d="M 126.167969 102.371094 L 128.273438 114.085938 "/>
<path style="fill:none;stroke-width:1.2;stroke-linecap:butt;stroke-linejoin:miter;stroke:rgb(0%,0%,0%);stroke-opacity:1;stroke-miterlimit:10;" d="M 128.273438 114.085938 L 130.378906 125.796875 "/>
<path style=" stroke:none;fill-rule:nonzero;fill:rgb(100%,100%,100%);fill-opacity:1;" d="M 123.167969 96.871094 L 130.167969 96.871094 L 130.167969 107.871094 L 123.167969 107.871094 Z M 123.167969 96.871094 "/>
<g style="fill:rgb(0%,0%,100%);fill-opacity:1;">
  <use xlink:href="#glyph0-1" x="123.167969" y="105.53418"/>
</g>
<path style="fill:none;stroke-width:1.2;stroke-linecap:butt;stroke-linejoin:miter;stroke:rgb(0%,0%,0%);stroke-opacity:1;stroke-miterlimit:10;" d="M 130.378906 125.796875 L 152.773438 133.867188 "/>
<path style="fill:none;stroke-width:1.2;stroke-linecap:butt;stroke-linejoin:miter;stroke:rgb(0%,0%,0%);stroke-opacity:1;stroke-miterlimit:10;" d="M 134.519531 121.335938 L 152.433594 127.789062 "/>
<path style="fill:none;stroke-width:1.2;stroke-linecap:butt;stroke-linejoin:miter;stroke:rgb(0%,0%,0%);stroke-opacity:1;stroke-miterlimit:10;" d="M 130.378906 125.796875 L 112.195312 141.160156 "/>
<path style="fill:none;stroke-width:1.2;stroke-linecap:butt;stroke-linejoin:miter;stroke:rgb(0%,0%,0%);stroke-opacity:1;stroke-miterlimit:10;" d="M 112.195312 141.160156 L 89.800781 133.09375 "/>
<path style="fill:none;stroke-width:1.2;stroke-linecap:butt;stroke-linejoin:miter;stroke:rgb(0%,0%,0%);stroke-opacity:1;stroke-miterlimit:10;" d="M 108.058594 145.621094 L 90.144531 139.167969 "/>
<path style="fill:none;stroke-width:1.2;stroke-linecap:butt;stroke-linejoin:miter;stroke:rgb(0%,0%,0%);stroke-opacity:1;stroke-miterlimit:10;" d="M 116.40625 164.585938 L 112.195312 141.160156 "/>
<path style="fill:none;stroke-width:1.2;stroke-linecap:butt;stroke-linejoin:miter;stroke:rgb(0%,0%,0%);stroke-opacity:1;stroke-miterlimit:10;" d="M 89.800781 133.09375 L 71.617188 148.453125 "/>
<path style="fill:none;stroke-width:1.2;stroke-linecap:butt;stroke-linejoin:miter;stroke:rgb(0%,0%,0%);stroke-opacity:1;stroke-miterlimit:10;" d="M 71.617188 148.453125 L 75.828125 171.882812 "/>
<path style="fill:none;stroke-width:1.2;stroke-linecap:butt;stroke-linejoin:miter;stroke:rgb(0%,0%,0%);stroke-opacity:1;stroke-miterlimit:10;" d="M 77.550781 149.804688 L 80.921875 168.546875 "/>
<path style="fill:none;stroke-width:1.2;stroke-linecap:butt;stroke-linejoin:miter;stroke:rgb(0%,0%,0%);stroke-opacity:1;stroke-miterlimit:10;" d="M 75.828125 171.882812 L 98.222656 179.949219 "/>
<path style="fill:none;stroke-width:1.2;stroke-linecap:butt;stroke-linejoin:miter;stroke:rgb(0%,0%,0%);stroke-opacity:1;stroke-miterlimit:10;" d="M 75.828125 171.882812 L 66.738281 179.5625 "/>
<path style="fill:none;stroke-width:1.2;stroke-linecap:butt;stroke-linejoin:miter;stroke:rgb(0%,0%,100%);stroke-opacity:1;stroke-miterlimit:10;" d="M 66.738281 179.5625 L 57.644531 187.242188 "/>
<path style="fill:none;stroke-width:1.2;stroke-linecap:butt;stroke-linejoin:miter;stroke:rgb(0%,0%,0%);stroke-opacity:1;stroke-miterlimit:10;" d="M 98.222656 179.949219 L 116.40625 164.585938 "/>
<path style="fill:none;stroke-width:1.2;stroke-linecap:butt;stroke-linejoin:miter;stroke:rgb(0%,0%,0%);stroke-opacity:1;stroke-miterlimit:10;" d="M 96.429688 174.132812 L 110.976562 161.84375 "/>
<path style="fill:none;stroke-width:1.2;stroke-linecap:butt;stroke-linejoin:miter;stroke:rgb(0%,0%,100%);stroke-opacity:1;stroke-miterlimit:10;" d="M 57.644531 187.242188 L 46.449219 183.207031 "/>
<path style="fill:none;stroke-width:1.2;stroke-linecap:butt;stroke-linejoin:miter;stroke:rgb(0%,0%,0%);stroke-opacity:1;stroke-miterlimit:10;" d="M 46.449219 183.207031 L 35.25 179.175781 "/>
<path style="fill:none;stroke-width:1.2;stroke-linecap:butt;stroke-linejoin:miter;stroke:rgb(0%,0%,100%);stroke-opacity:1;stroke-miterlimit:10;" d="M 57.644531 187.242188 L 59.75 198.957031 "/>
<path style="fill:none;stroke-width:1.2;stroke-linecap:butt;stroke-linejoin:miter;stroke:rgb(0%,0%,0%);stroke-opacity:1;stroke-miterlimit:10;" d="M 59.75 198.957031 L 61.855469 210.671875 "/>
<path style=" stroke:none;fill-rule:nonzero;fill:rgb(100%,100%,100%);fill-opacity:1;" d="M 54.644531 181.742188 L 61.644531 181.742188 L 61.644531 192.742188 L 54.644531 192.742188 Z M 54.644531 181.742188 "/>
<g style="fill:rgb(0%,0%,100%);fill-opacity:1;">
  <use xlink:href="#glyph0-1" x="54.644531" y="190.405273"/>
</g>
</g>
</svg>

<svg xmlns="http://www.w3.org/2000/svg" xmlns:xlink="http://www.w3.org/1999/xlink" width="300pt" height="300pt" viewBox="0 0 300 300"><defs><symbol overflow="visible"><path d="M.453 1.594v-7.938h4.5v7.938zm.5-.5h3.5v-6.938h-3.5zm0 0"/></symbol><symbol overflow="visible" id="a"><path d="M.89-6.563H2.08l2.906 5.485v-5.484h.86V0H4.656L1.75-5.484V0H.89zm0 0"/></symbol><symbol overflow="visible" id="b"><path d="M.89-6.563h.876v2.688H5v-2.688h.89V0H5v-3.125H1.766V0H.89zm0 0"/></symbol></defs><g><path fill="#fff" d="M0 0h300v300H0z"/><path d="M250.777 212.992l-4.21-23.43M246.566 189.563l-22.394-8.067M246.227 183.488l-17.918-6.457M264.75 174.203l-18.184 15.36M224.172 181.496l-4.21-23.43M219.96 158.066l18.185-15.36M225.395 160.81l14.546-12.29M219.96 158.066L197.567 150M238.145 142.707l22.394 8.066M260.54 150.773l4.21 23.43M255.45 154.105l3.366 18.743M197.566 150l-2.105-11.715" stroke-width="1.2" stroke="#000" stroke-miterlimit="10" fill="none"/><path d="M195.46 138.285l-2.105-11.715M193.355 126.57l-11.2-4.03" stroke-width="1.2" stroke="#00f" stroke-miterlimit="10" fill="none"/><path d="M182.156 122.54l-11.195-4.036" stroke-width="1.2" stroke="#000" stroke-miterlimit="10" fill="none"/><path d="M186.355 121.07h14v11h-14zm0 0" fill="#fff"/><g fill="#00f"><use xlink:href="#a" x="186.355" y="129.733"/><use xlink:href="#b" x="193.333" y="129.733"/></g><path d="M170.96 118.504l-2.105-11.715" stroke-width="1.2" stroke="#000" stroke-miterlimit="10" fill="none"/><path d="M168.855 106.79l-2.11-11.712" stroke-width="1.2" stroke="#00f" stroke-miterlimit="10" fill="none"/><path d="M165.027 117.152l-1.687-9.37" stroke-width="1.2" stroke="#000" stroke-miterlimit="10" fill="none"/><path d="M163.34 107.78l-1.684-9.37" stroke-width="1.2" stroke="#00f" stroke-miterlimit="10" fill="none"/><path d="M152.773 133.867l18.188-15.363" stroke-width="1.2" stroke="#000" stroke-miterlimit="10" fill="none"/><path d="M166.746 95.078l-11.195-4.035" stroke-width="1.2" stroke="#00f" stroke-miterlimit="10" fill="none"/><path d="M155.55 91.043l-11.198-4.035" stroke-width="1.2" stroke="#000" stroke-miterlimit="10" fill="none"/><path d="M163.746 89.578h7v11h-7zm0 0" fill="#fff"/><use xlink:href="#a" x="163.746" y="98.241" fill="#00f"/><path d="M144.352 87.008l-9.09 7.683" stroke-width="1.2" stroke="#000" stroke-miterlimit="10" fill="none"/><path d="M135.262 94.69l-9.094 7.68" stroke-width="1.2" stroke="#00f" stroke-miterlimit="10" fill="none"/><path d="M146.148 92.824l-7.273 6.145" stroke-width="1.2" stroke="#000" stroke-miterlimit="10" fill="none"/><path d="M138.875 98.97l-7.273 6.143M126.168 102.37l2.105 11.716" stroke-width="1.2" stroke="#00f" stroke-miterlimit="10" fill="none"/><path d="M128.273 114.086l2.106 11.71" stroke-width="1.2" stroke="#000" stroke-miterlimit="10" fill="none"/><path d="M123.168 96.87h7v11h-7zm0 0" fill="#fff"/><use xlink:href="#a" x="123.168" y="105.534" fill="#00f"/><path d="M130.38 125.797l22.393 8.07M134.52 121.336l17.914 6.453M130.38 125.797l-18.185 15.363M112.195 141.16L89.8 133.094M108.06 145.62l-17.915-6.452M116.406 164.586l-4.21-23.426M89.8 133.094l-18.183 15.36M71.617 148.453l4.21 23.43M77.55 149.805l3.372 18.742M75.828 171.883l22.395 8.066M75.828 171.883l-9.09 7.68" stroke-width="1.2" stroke="#000" stroke-miterlimit="10" fill="none"/><path d="M66.738 179.563l-9.093 7.68" stroke-width="1.2" stroke="#00f" stroke-miterlimit="10" fill="none"/><path d="M98.223 179.95l18.183-15.364M96.43 174.133l14.547-12.29" stroke-width="1.2" stroke="#000" stroke-miterlimit="10" fill="none"/><path d="M57.645 187.242l-11.196-4.035" stroke-width="1.2" stroke="#00f" stroke-miterlimit="10" fill="none"/><path d="M46.45 183.207l-11.2-4.03" stroke-width="1.2" stroke="#000" stroke-miterlimit="10" fill="none"/><path d="M57.645 187.242l2.105 11.715" stroke-width="1.2" stroke="#00f" stroke-miterlimit="10" fill="none"/><path d="M59.75 198.957l2.105 11.715" stroke-width="1.2" stroke="#000" stroke-miterlimit="10" fill="none"/><path d="M54.645 181.742h7v11h-7zm0 0" fill="#fff"/><use xlink:href="#a" x="54.645" y="190.405" fill="#00f"/></g></svg>
